assets/svg/1F4D5.svg

<svg xmlns="http://www.w3.org/2000/svg" viewBox="0 0 64 64" enable-background="new 0 0 64 64"><g transform="translate(6)"><path d="m.209 58.2c0 0 1.884 7.242 13.664 5.388l2.01-4.849-3.389-3.682-9.383-3.097-2.898 6.24" fill="#34484c"/><path d="m37.752 44.627c0 2.566-1.321 3.241-4.649 4.648l-28.45 12.01c-2.568 0-4.653-2.081-4.653-4.649v-39.976c0-2.569 1.511-3.421 4.653-4.649l28.45-12.01c2.568 0 4.649 2.084 4.649 4.651v39.976" fill="#78111f"/><path d="m2.588 60.798c0 0 10.663 3.056 11.285 2.793.622-.263-.398-4.621-.398-4.621l-3.857-4.158-3.588-.166-.632.898-2.81 5.254" fill="#34484c"/><path d="m32.432 2.767l-31.558 13.259 1.48 8.499 4.698.468 15.679-2.522 9.746-5.11 7.174-9.826c-1.568-2.811-3.871-4.554-7.219-4.768" fill="#f4f5f5"/><path d="m9.234 18.967c0-.741.132-1.339.384-1.846-3.227-.301-6.277-1.236-8.502-3.242-.737.681-1.103 1.525-1.103 2.783v39.976c0 2.568 2.083 4.649 4.651 4.649l4.59-1.939c-.012-.133-.021-.269-.021-.403v-39.978" fill="#34484c"/><path d="m47.798 48.566c0 2.567-1.321 3.24-4.649 4.647l-29.28 10.378c-2.567 0-4.648-2.08-4.648-4.646v-39.978c0-2.567 1.509-3.421 4.648-4.647l29.28-10.38c2.566 0 4.649 2.082 4.649 4.649v39.977" fill="#be202e"/><path d="m26.11 58.19c-2.567 0-4.647-2.082-4.647-4.649v-39.977c0-1.434.675-1.793 1.638-2.521l-9.231 3.272c-3.14 1.226-4.648 2.081-4.648 4.647v39.978c0 2.566 2.082 4.646 4.648 4.646l29.28-10.377c1.377-.581 2.407-1.04 3.146-1.557l-20.18 6.538" fill="#a51e2d"/><g fill="#78111f"><path d="m35.676 16.14c.125.323-.037.689-.362.814l-15.566 6c-.325.127-.687-.034-.814-.359l0 0c-.125-.323.038-.687.362-.812l15.568-6c.326-.126.688.036.812.359l0 0"/><path d="m35.676 19c.125.323-.037.689-.362.814l-15.566 6c-.325.127-.687-.036-.814-.359l0 0c-.125-.323.038-.687.362-.814l15.568-6c.326-.128.688.036.812.359l0 0"/><path d="m30.384 24.01c.125.323.048.654-.173.739l-10.632 4.1c-.221.085-.503-.109-.627-.432l0 0c-.123-.323-.046-.658.174-.743l10.633-4.098c.222-.085.5.107.625.434l0 0"/></g></g></svg>

<?xml version="1.0" encoding="UTF-8" standalone="no"?>
<!-- Generator: Adobe Illustrator 16.0.0, SVG Export Plug-In . SVG Version: 6.00 Build 0)  -->

<svg
   xmlns:dc="http://purl.org/dc/elements/1.1/"
   xmlns:cc="http://creativecommons.org/ns#"
   xmlns:rdf="http://www.w3.org/1999/02/22-rdf-syntax-ns#"
   xmlns:svg="http://www.w3.org/2000/svg"
   xmlns="http://www.w3.org/2000/svg"
   xmlns:sodipodi="http://sodipodi.sourceforge.net/DTD/sodipodi-0.dtd"
   xmlns:inkscape="http://www.inkscape.org/namespaces/inkscape"
   version="1.1"
   id="Layer_1"
   x="0px"
   y="0px"
   width="64px"
   height="64px"
   viewBox="0 0 64 64"
   enable-background="new 0 0 64 64"
   xml:space="preserve"
   inkscape:version="0.48.5 r10040"
   sodipodi:docname="1F4D5.svg"><metadata
   id="metadata41461"><rdf:RDF><cc:Work
       rdf:about=""><dc:format>image/svg+xml</dc:format><dc:type
         rdf:resource="http://purl.org/dc/dcmitype/StillImage" /></cc:Work></rdf:RDF></metadata><defs
   id="defs41459" /><sodipodi:namedview
   pagecolor="#ffffff"
   bordercolor="#666666"
   borderopacity="1"
   objecttolerance="10"
   gridtolerance="10"
   guidetolerance="10"
   inkscape:pageopacity="0"
   inkscape:pageshadow="2"
   inkscape:window-width="640"
   inkscape:window-height="480"
   id="namedview41457"
   showgrid="false"
   inkscape:zoom="3.6875"
   inkscape:cx="32"
   inkscape:cy="32"
   inkscape:window-x="0"
   inkscape:window-y="0"
   inkscape:window-maximized="0"
   inkscape:current-layer="Layer_1" />
<g
   id="g41435"
   transform="translate(6,0)">
	<path
   d="m 0.209,58.203 c 0,0 1.884,7.242 13.664,5.388 L 15.879,58.742 12.49,55.06 3.107,51.963 0.209,58.203 z"
   id="path41437"
   inkscape:connector-curvature="0"
   style="fill:#34484c" />
	<path
   d="m 37.752,44.627 c 0,2.566 -1.321,3.241 -4.649,4.648 L 4.653,61.287 C 2.085,61.287 0,59.206 0,56.638 V 16.662 C 0,14.093 1.511,13.241 4.653,12.013 L 33.103,0 c 2.568,0 4.649,2.084 4.649,4.651 v 39.976 z"
   id="path41439"
   inkscape:connector-curvature="0"
   style="fill:#78111f" />
	<path
   d="m 2.588,60.798 c 0,0 10.663,3.056 11.285,2.793 0.622,-0.263 -0.398,-4.621 -0.398,-4.621 L 9.618,54.812 6.03,54.646 5.398,55.544 2.588,60.798 z"
   id="path41441"
   inkscape:connector-curvature="0"
   style="fill:#34484c" />
	<path
   d="m 32.432,2.767 -31.558,13.259 1.48,8.499 4.698,0.468 15.679,-2.522 9.746,-5.11 7.174,-9.826 C 38.083,4.724 35.78,2.981 32.432,2.767 z"
   id="path41443"
   inkscape:connector-curvature="0"
   style="fill:#f4f5f5" />
	<path
   d="m 9.234,18.967 c 0,-0.741 0.132,-1.339 0.384,-1.846 C 6.391,16.82 3.341,15.885 1.116,13.879 0.379,14.56 0.013,15.404 0.013,16.662 v 39.976 c 0,2.568 2.083,4.649 4.651,4.649 l 4.59,-1.939 C 9.242,59.215 9.233,59.079 9.233,58.945 V 18.967 z"
   id="path41445"
   inkscape:connector-curvature="0"
   style="fill:#34484c" />
	<path
   d="m 47.798,48.566 c 0,2.567 -1.321,3.24 -4.649,4.647 L 13.873,63.591 c -2.567,0 -4.648,-2.08 -4.648,-4.646 V 18.967 c 0,-2.567 1.509,-3.421 4.648,-4.647 L 43.148,3.94 c 2.566,0 4.649,2.082 4.649,4.649 v 39.977 z"
   id="path41447"
   inkscape:connector-curvature="0"
   style="fill:#be202e" />
	<path
   d="m 26.113,58.194 c -2.567,0 -4.647,-2.082 -4.647,-4.649 V 13.568 c 0,-1.434 0.675,-1.793 1.638,-2.521 l -9.231,3.272 c -3.14,1.226 -4.648,2.081 -4.648,4.647 v 39.978 c 0,2.566 2.082,4.646 4.648,4.646 L 43.148,53.213 c 1.377,-0.581 2.407,-1.04 3.146,-1.557 l -20.181,6.538 z"
   id="path41449"
   inkscape:connector-curvature="0"
   style="fill:#a51e2d" />
	<path
   d="m 35.676,16.141 c 0.125,0.323 -0.037,0.689 -0.362,0.814 l -15.566,6 c -0.325,0.127 -0.687,-0.034 -0.814,-0.359 l 0,0 c -0.125,-0.323 0.038,-0.687 0.362,-0.812 l 15.568,-6.002 c 0.326,-0.126 0.688,0.036 0.812,0.359 l 0,0 z"
   id="path41451"
   inkscape:connector-curvature="0"
   style="fill:#78111f" />
	<path
   d="m 35.676,19.005 c 0.125,0.323 -0.037,0.689 -0.362,0.814 l -15.566,6 c -0.325,0.127 -0.687,-0.036 -0.814,-0.359 l 0,0 c -0.125,-0.323 0.038,-0.687 0.362,-0.814 l 15.568,-6 c 0.326,-0.128 0.688,0.036 0.812,0.359 l 0,0 z"
   id="path41453"
   inkscape:connector-curvature="0"
   style="fill:#78111f" />
	<path
   d="m 30.384,24.006 c 0.125,0.323 0.048,0.654 -0.173,0.739 l -10.632,4.1 c -0.221,0.085 -0.503,-0.109 -0.627,-0.432 l 0,0 C 18.829,28.09 18.906,27.755 19.126,27.67 l 10.633,-4.098 c 0.222,-0.085 0.5,0.107 0.625,0.434 l 0,0 z"
   id="path41455"
   inkscape:connector-curvature="0"
   style="fill:#78111f" />
</g>
</svg>
